X:1
T:My Prayer
T:My Prayer
T:Adger McDavid Pace
T:Virgil Oliver Stamps, 1922
T:Public Domain Courtesy of the Cyber Hymnal™
T:Public Domain Courtesy of the Cyber Hymnal™
C:Adger McDavid Pace
Z:Public Domain
Z:Courtesy of the Cyber Hymnal™
%%score ( 1 2 ) ( 3 4 )
L:1/8
Q:1/4=107
M:4/4
K:Ab
V:1 treble 
V:2 treble 
V:3 bass 
V:4 bass 
V:1
 [CE]2 | [Ec]3 [Fc] [Ac][Gc][Fc][Ec] | [Fc]>[Cc] [Ec]4 [CE]2 | [Ec]3 [Fc] [Ac][Gc][Fc][Ec] | %4
w: 1.~O|Fa- ther, hear me as I|pray to Thee, I|know that I am far from|
w: 2.~I|pray that Thou wilt par- don|ev- ery sin; O|Lord, for- give and make me|
w: 3.~To-|night, O Fa- ther, as the|sha- dows creep And|I so gent- ly close my|
w: 4.~When|morn- ing comes, oh, let me|rise to work, For-|bid that du- ty I should|
 [Gd]>[^Fd] [Gd]4 [Gd]2 | [Bd]3 [Ad] [Gd][Bd][Ad][Fd] | [Gd]>[Ad] [Bd]4 [Bd]2 | %7
w: pur- i- ty; But|Je- sus died that sin- ful|men might live, So|
w: pure with- in. Plant|a de- sire for serv- ice|in my heart And|
w: eyes in sleep, I|pray that Thou wilt guard me|through the night And|
w: ev- er shirk; And|when at last my race on|earth is run, Grant,|
 [c=d]3 [Bd] [Ad][Fd][Gd][Ad] | [Ge]>[F=d] (!fermata!z3/2 F/ !fermata!G2) z2 || %9
w: in His Name I ask Thee|to for- * *|
w: give me strength to al- ways|do my * *|
w: keep me safe till comes the|morn- ing * *|
w: Lord, that I may hear Thee|say, “Well * *|
"^Refrain" [Ec]4 [CE]4 | [B,=D]4 [DB]4 | [EB]3 [Ec] [EB][FA] [EG]>[=DF] |"^rall." !fermata!E6 z2 | %13
w: * give.||||
w: * part.||||
w: * light.|Fa- ther,|Fa- ther, Hum- bly now I|come|
w: * done.”||||
 [Ec]4 [Ae]4 | [Af]4 !fermata!B4 !fermata![A=B]2 |"^riten." [Ac]3 [Ac] [Ae][Ed][EF][EG] | [EA]6 |] %17
w: ||||
w: ||||
w: to Thee;|Fa- ther, Fa-|* ther, Hear, oh hear my|hum-|
w: ||||
V:2
 x2 | x8 | x8 | x8 | x8 | x8 | x8 | x8 | x2 [E_d]4 x2 || x8 | x8 | x8 | (E2 C2 B,2) x2 | x8 | %14
 x4 A2- x4 | x8 | x6 |] %17
V:3
 z2 | [A,,A,]2 [E,,E,]2 [A,,A,]2 [E,,E,]2 | [A,,A,]>[A,,A,] (A,G,F,E,) z2 | %3
 [A,,A,]2 [E,,E,]2 [A,,A,]2 [E,,E,]2 | [B,,E,]>[B,,E,B,] (B,A,G,F,) z2 | %5
 [G,,G,]2 [E,,E,]2 [B,,B,]2 [E,,E,]2 | [E,,E,]>[E,,E,] (G,B,G,E,) z2 | %7
 ([B,,F,A,][B,,F,A,][B,,F,A,][B,,F,A,]) [B,,F,B,][B,,F,B,][B,,F,B,][B,,F,B,] | %8
 [B,,B,]>[B,,A,] (G,>A, !fermata!B,2) E,2 || [A,,A,]2 [A,,A,]2 [=A,,_G,]2 [A,,G,]2 | %10
 [B,,F,]2 [B,,F,]2 [F,A,]2 [F,A,]2 | [E,G,]3 [E,A,] [E,G,][A,,C] [B,,B,]>[B,,A,] | %12
 (G,2 A,2 B,2) z2 | A,2 A,2 [_G,C]2 [G,C]2 | [F,D]2 [F,D]2 [_F,=D]2 !fermata![F,D]2 x2 | %15
 [E,E]3 [E,E] [E,C][E,B,][E,D][E,D] | [A,,C]6 |] %17
V:4
 x2 | x8 | x2 A,,4 x2 | x8 | x2 E,4 x2 | x8 | x2 E,4 x2 | x8 | x2 E,4 E,2 || x8 | x8 | x8 | %12
 E,6 x2 | A,2 A,2 x4 | x10 | x8 | x6 |] %17

